assets/icons/heart.svg

<svg width="25" height="25" viewBox="0 0 25 25" fill="none" xmlns="http://www.w3.org/2000/svg">
<path d="M20.4654 7.43328C19.834 6.63373 18.9422 6.06193 17.9332 5.80978C16.9241 5.55761 15.8565 5.6397 14.9016 6.04283C14.047 6.39833 13.2848 6.99768 12.6667 7.79303C12.0485 6.99573 11.2863 6.39638 10.4317 6.04283C9.47687 5.6397 8.40922 5.55761 7.40014 5.80978C6.39111 6.06193 5.49928 6.63373 4.86795 7.43328C4.20219 8.27413 3.85034 9.32503 3.85034 10.472C3.85034 12.1226 4.87158 13.9335 6.88541 15.8564C8.52642 17.4226 10.4656 18.7053 11.4751 19.3303C11.8309 19.5498 12.2444 19.6664 12.6667 19.6664C13.089 19.6664 13.5025 19.5498 13.8582 19.3303C14.8669 18.7053 16.8069 17.4226 18.4479 15.8564C20.4618 13.9343 21.483 12.1226 21.483 10.472C21.483 9.32503 21.1311 8.27413 20.4654 7.43328Z" fill="white"/>
</svg>

<svg xmlns="http://www.w3.org/2000/svg" width="25" height="25" fill="none" viewBox="0 0 25 25"><path fill="#fff" d="M20.465 7.433a4.66 4.66 0 0 0-2.532-1.623 4.8 4.8 0 0 0-3.031.233c-.855.355-1.617.955-2.235 1.75-.618-.797-1.38-1.397-2.235-1.75A4.8 4.8 0 0 0 7.4 5.81a4.66 4.66 0 0 0-2.532 1.623c-.666.841-1.018 1.892-1.018 3.039 0 1.65 1.022 3.462 3.035 5.384 1.641 1.567 3.58 2.85 4.59 3.474.356.22.77.336 1.192.336a2.27 2.27 0 0 0 1.191-.336c1.009-.625 2.949-1.907 4.59-3.474 2.014-1.922 3.035-3.733 3.035-5.384 0-1.147-.352-2.198-1.018-3.039"/></svg>
